LyrcsWebsite/src/assets/logo.svg

<svg fill="none" height="824" viewBox="0 0 824 824" width="824" xmlns="http://www.w3.org/2000/svg" xmlns:xlink="http://www.w3.org/1999/xlink"><linearGradient id="a" gradientUnits="userSpaceOnUse" x1="0" x2="824" y1="0" y2="824"><stop offset="0" stop-color="#9253bd"/><stop offset="1" stop-color="#16c2bf"/></linearGradient><clipPath id="b"><rect height="824" rx="184" width="824"/></clipPath><g clip-path="url(#b)"><rect fill="url(#a)" height="824" rx="184" width="824"/><path d="m612.7 515.35c4.767 0 8.433 2.2 11 6.6 2.933 4.4 4.4 10.45 4.4 18.15 0 14.3-3.483 25.667-10.45 34.1-20.533 24.567-40.517 41.8-59.95 51.7-19.067 9.9-42.167 14.85-69.3 14.85-19.067 0-36.667-2.383-52.8-7.15s-35.75-11.917-58.85-21.45c-20.9-9.167-41.067-16.683-60.5-22.55-18.7 34.1-46.75 51.15-84.15 51.15-20.533 0-36.85-4.583-48.95-13.75-12.467-9.533-18.7-21.633-18.7-36.3 0-17.967 8.617-32.817 25.85-44.55 17.233-12.1 40.15-18.15 68.75-18.15h7.15l9.9-160.05c2.2-36.667 8.8-66.917 19.8-90.75s26.217-44.183 45.65-61.05c16.867-14.667 36.117-25.667 57.75-33 21.633-7.7 44.55-11.55 68.75-11.55 39.6 0 70.033 10.267 91.3 30.8s31.9 47.3 31.9 80.3c0 22.367-4.033 40.517-12.1 54.45-8.067 13.567-19.25 20.35-33.55 20.35-10.267 0-18.333-2.383-24.2-7.15-5.867-5.133-8.8-12.283-8.8-21.45 0-3.3.733-9.35 2.2-18.15 2.2-10.267 3.3-19.433 3.3-27.5 0-15.4-4.583-27.5-13.75-36.3-8.8-9.167-22.367-13.75-40.7-13.75-32.267 0-57.2 10.633-74.8 31.9-17.6 20.9-28.783 53.9-33.55 99l-12.65 124.85c-1.833 17.6-4.217 32.817-7.15 45.65 23.467 4.033 52.8 10.45 88 19.25 20.533 5.133 36.3 8.8 47.3 11s20.717 3.3 29.15 3.3c21.267 0 39.417-3.483 54.45-10.45 15.4-7.333 29.883-18.883 43.45-34.65 4.4-5.133 9.35-7.7 14.85-7.7z" fill="#fff"/></g></svg>

<svg width="824" height="824" viewBox="0 0 824 824" fill="none" xmlns="http://www.w3.org/2000/svg">
<g clip-path="url(#clip0_347_99)">
<rect width="824" height="824" rx="184" fill="url(#paint0_linear_347_99)"/>
<path d="M612.7 515.35C617.467 515.35 621.133 517.55 623.7 521.95C626.633 526.35 628.1 532.4 628.1 540.1C628.1 554.4 624.617 565.767 617.65 574.2C597.117 598.767 577.133 616 557.7 625.9C538.633 635.8 515.533 640.75 488.4 640.75C469.333 640.75 451.733 638.367 435.6 633.6C419.467 628.833 399.85 621.683 376.75 612.15C355.85 602.983 335.683 595.467 316.25 589.6C297.55 623.7 269.5 640.75 232.1 640.75C211.567 640.75 195.25 636.167 183.15 627C170.683 617.467 164.45 605.367 164.45 590.7C164.45 572.733 173.067 557.883 190.3 546.15C207.533 534.05 230.45 528 259.05 528H266.2L276.1 367.95C278.3 331.283 284.9 301.033 295.9 277.2C306.9 253.367 322.117 233.017 341.55 216.15C358.417 201.483 377.667 190.483 399.3 183.15C420.933 175.45 443.85 171.6 468.05 171.6C507.65 171.6 538.083 181.867 559.35 202.4C580.617 222.933 591.25 249.7 591.25 282.7C591.25 305.067 587.217 323.217 579.15 337.15C571.083 350.717 559.9 357.5 545.6 357.5C535.333 357.5 527.267 355.117 521.4 350.35C515.533 345.217 512.6 338.067 512.6 328.9C512.6 325.6 513.333 319.55 514.8 310.75C517 300.483 518.1 291.317 518.1 283.25C518.1 267.85 513.517 255.75 504.35 246.95C495.55 237.783 481.983 233.2 463.65 233.2C431.383 233.2 406.45 243.833 388.85 265.1C371.25 286 360.067 319 355.3 364.1L342.65 488.95C340.817 506.55 338.433 521.767 335.5 534.6C358.967 538.633 388.3 545.05 423.5 553.85C444.033 558.983 459.8 562.65 470.8 564.85C481.8 567.05 491.517 568.15 499.95 568.15C521.217 568.15 539.367 564.667 554.4 557.7C569.8 550.367 584.283 538.817 597.85 523.05C602.25 517.917 607.2 515.35 612.7 515.35Z" fill="white"/>
</g>
<defs>
<linearGradient id="paint0_linear_347_99" x1="0" y1="0" x2="824" y2="824" gradientUnits="userSpaceOnUse">
<stop stop-color="#9253BD"/>
<stop offset="1" stop-color="#16C2BF"/>
</linearGradient>
<clipPath id="clip0_347_99">
<rect width="824" height="824" rx="184" fill="white"/>
</clipPath>
</defs>
</svg>
